!!!!SEGMENT: pl-kk--kk-i-6--055_anonim--deo-gratias.krn
!!!cenid: 16xx:1051
!!!COM: Anonim
!!!COM-rismid: pe30004985
!!!CDT:
!!!CNT:
!!!OTL: Deo gratias
!!!PDT:
!!!AGN:
!!!SMS-siglum: PL-Kk
!!!SMS-shelfmark: Kk.I.6
!!!SMS-shelfwork: 055 W
!!!SMS-variant:
!!!SMS-altvar:
!!!NIFC-rismid: 1001136563
!!!URL-scan: http://repozytorium.nifc.pl/skany/pl-kk-nut--i-6
!!!ONB-nifc: UWAGA: C (skan 0087, s. 170), T (skan 0198, s. 200), B (skan 0311, s. 204) Benedicamus de B.V. M.
**kern	**text	**kern	**text	**kern	**text
*part3	*part3	*part2	*part2	*part1	*part1
*staff3	*staff3	*staff2	*staff2	*staff1	*staff1
*Ibass	*	*Itenor	*	*Ivox	*
*I"Basso	*	*I"Tenore	*	*I"Canto	*
*I'B	*	*I'T	*	*I'C	*
*clefF4	*	*clefC4	*	*clefC4	*
*k[]	*	*k[]	*	*k[]	*
*D:	*	*D:	*	*D:	*
*M2/1	*	*M2/1	*	*M2/1	*
*met(C|)	*	*met(C|)	*	*met(C|)	*
=1-	=1-	=1-	=1-	=1-	=1-
!!LO:TX:t=P:problem:4\ center:global
*lig	*	*	*	*	*
1D	De-	0r	.	1r	.
*	*	*	*	*lig	*
1F	.	.	.	1A	De-
*Xlig	*	*	*	*	*
=2-	=2-	=2-	=2-	=2-	=2-
*lig	*	*	*	*	*
1G	.	1r	.	1Bn	.
*	*	*	*	*Xlig	*
*	*	*lig	*	*lig	*
1A	.	1A	De-	1c	.
=3-	=3-	=3-	=3-	=3-	=3-
1G	.	1Bn	.	1B	.
*Xlig	*	*Xlig	*	*Xlig	*
*lig	*	*	*	*lig	*
1F	.	4c\	.	1A	.
.	.	4A\	-o	.	.
.	.	1d\	gra-	.	.
=4-	=4-	=4-	=4-	=4-	=4-
1E	.	.	.	1G	.
*	*	*2\right	*	*	*
.	.	2c#X\	-ti-	.	.
*Xlig	*	*	*	*Xlig	*
1D	-o	2d\	-as	2F/	-o
.	.	2.A\	De-	2.F/	gra-
=5-	=5-	=5-	=5-	=5-	=5-
1F	gra-	.	.	.	.
.	.	4B\	.	4G/	.
.	.	2cny\	-o	2.A/	.
*lig	*	*	*	*	*
1D	.	4d\	gra-	.	.
.	.	4e\	.	4G/	.
.	.	1f\	.	4A/	.
.	.	.	.	4B\	.
=6-	=6-	=6-	=6-	=6-	=6-
1C	.	.	.	4c\	.
.	.	.	.	4G/	.
.	.	2e\	.	1c\	.
*Xlig	*	*	*	*	*
*lig	*	*	*	*	*
1D	.	1f	.	.	.
*	*	*	*	*2\right	*
.	.	.	.	2B\	-ti-
=7-	=7-	=7-	=7-	=7-	=7-
!	!	!LO:LB:g=original	!	!	!
1C	.	2.c\	.	1c	-as
.	.	4c\	-ti-	.	.
*Xlig	*	*	*	*	*
!	!	!	!	!LO:LB:g=original	!
!	!	!LO:TX:t=P:problem:oddech jako rozdzielacz słów	!	!	!
1D	.	2F,</	-as,	1r	.
.	.	4A/	De-	.	.
.	.	4B-X\	.	.	.
=8-	=8-	=8-	=8-	=8-	=8-
*lig	*	*	*	*lig	*
1F	.	2c\	-o	1A	De-
.	.	2.d\	gra-	.	.
1G	.	.	.	1B-X	.
.	.	4c\	.	.	.
.	.	4B-X\	.	.	.
.	.	4G/	.	.	.
*Xlig	*	*	*	*Xlig	*
=9-	=9-	=9-	=9-	=9-	=9-
1F	.	2c\	.	2A/	-o
.	.	2A/	.	2D/	gra-
!LO:LB:g=original	!	!	!	!	!
1E	-ti-	2G/	.	2.E/	.
.	.	2E/	-ti-	.	.
.	.	.	.	4E/	-ti-
=10-	=10-	=10-	=10-	=10-	=10-
00D;;	-as.	00A;;	-as.	00F#X;;	-as.
=11-	=11-	=11-	=11-	=11-	=11-
*-	*-	*-	*-	*-	*-
!!!system-decoration: [(s1,s2,s3)]
!!!RDF**kern: < = below
!!!RDF**kern: > = above
!!!AIN: 1 bass 1 tenor 1 vox
!!!ENC: Andrzej Gręziak
!!!END: 2021-10-25
!!!ENC: Marta Chmielewska
!!!END: 2021-10-27
